X:1
T:F\"ur Elise
T:F\"ur Elise
T:Bagatelle No.25 in A, WoO.59
T:Ludwig van Beethoven
C:Ludwig van Beethoven
%%score 1 2
L:1/8
Q:3/8=40
M:3/8
K:C
V:1 treble 
V:2 bass 
V:1
 e/^d/ | e/^d/e/B/=d/c/ | A z/ C/E/A/ | B z/ E/^G/B/ | c z/ E/e/^d/ | e/^d/e/B/=d/c/ | %6
 A z/ C/E/A/ | B z/ E/c/B/ |1 A z :|2 A z/ B/c/d/ |: e3/2 G/f/e/ | d3/2 F/e/d/ | c3/2 E/d/c/ | %13
 B z/ E/e/ z/ | z/ e/e'/ z/ z/ ^d/ | e/ z/ z/ ^d/e/d/ | e/^d/e/B/=d/c/ | A z/ C/E/A/ | %18
 B z/ E/^G/B/ | c z/ E/e/^d/ | e/^d/e/B/=d/c/ | A z/ C/E/A/ | B z/ E/c/B/ |1 A z/ B/c/d/ :|2 %24
 A z/ [Ec]/[Fc]/[EGc]/ | c2 f/>e/ | ed _b/>a/ | a/g/f/e/d/c/ | _BA A/4G/4A/4B/4 | c2 d/^d/ | %30
 e3/2 e/f/A/ | c2 d/>B/ | c/4g/4G/4g/4 A/4g/4B/4g/4 c/4g/4d/4g/4 | %33
 e/4g/4c'/4b/4 a/4g/4f/4e/4 d/4g/4f/4d/4 | c/4g/4G/4g/4 A/4g/4B/4g/4 c/4g/4d/4g/4 | %35
 e/4g/4c'/4b/4 a/4g/4f/4e/4 d/4g/4f/4d/4 | e/4f/4e/4^d/4 e/4B/4e/4d/4 e/4B/4e/4d/4 | e3/2 B/e/^d/ | %38
 e3/2 B/e/ z/ | z/ ^d/e/ z/ z/ d/ | e/^d/e/B/=d/c/ | A z/ C/E/A/ | B z/ E/^G/B/ | c z/ E/e/^d/ | %44
 e/^d/e/B/=d/c/ | A z/ C/E/A/ | B z/ E/c/B/ | A z/ B/c/d/ | e3/2 G/f/e/ | d3/2 F/e/d/ | %50
 c3/2 E/d/c/ | B z/ E/e/ z/ | z/ e/e'/ z/ z/ ^d/ | e/ z/ z/ ^d/e/d/ | e/^d/e/B/=d/c/ | %55
 A z/ C/E/A/ | B z/ E/^G/B/ | c z/ E/e/^d/ | e/^d/e/B/=d/c/ | A z/ C/E/A/ | B z/ E/c/B/ | A z z | %62
 [EG_B^c]3 | [FAd]2 [^ce]/[df]/ | [^Gdf]2 [Gdf] | [Ace]3 | [Fd]2 [Ec]/[DB]/ | %67
 [C^FA]2 [CA][CA][Ec][DB] | [CA]3 | [EG_B^c]3 | [FAd]2 [^ce]/[df]/ | [df]2 [df] | [df]3 | %73
 [G_e]2 [Fd]/[_Ec]/ | [DF_B]2 [DFA] | [DF^G]2 [DFG] | [CEA] z z | [EB] z z | %78
 (3A,/C/E/ (3A/c/e/ (3d/c/B/ | (3A/c/e/ (3a/c'/e'/ (3d'/c'/b/ | (3A/c/e/ (3a/c'/e'/ (3d'/c'/b/ | %81
 (3_b/a/_a/ (3g/_g/f/ (3e/_e/d/ | (3_d'/c'/b/ (3_b/a/b/ (3g/_g/f/ | e/^d/e/B/=d/c/ | A z/ C/E/A/ | %85
 B z/ E/^G/B/ | c z/ E/e/^d/ | e/^d/e/B/=d/c/ | A z/ C/E/A/ | B z/ E/c/B/ | A z/ B/c/d/ | %91
 e3/2 G/f/e/ | d3/2 F/e/d/ | c3/2 E/d/c/ | B z/ E/e/ z/ | z/ e/e'/ z/ z/ ^d/ | e/ z/ z/ ^d/e/d/ | %97
 e/^d/e/B/=d/c/ | A z/ C/E/A/ | B z/ E/^G/B/ | c z/ E/e/^d/ | e/^d/e/B/=d/c/ | A z/ C/E/A/ | %103
 B z/ D/c/B/ | [CA]2 x |] x2 |] %106
V:2
 z | z3 | A,,/E,/A,/ z/ z | E,,/E,/^G,/ z/ z | A,,/E,/A,/ z/ z | z3 | A,,/E,/A,/ z/ z | %7
 E,,/E,/^G,/ z/ z |1 A,,/E,/A,/ z/ :|2 A,,/E,/A,/ z/ z |: C,/E,/C/ z/ z | G,,/G,/B,/ z/ z | %12
 A,,/E,/A,/ z/ z | E,,/E,/E/ z/ z/ E/ | e/ z/ z/ ^d/e/ z/ | z/ ^d/e/ z/ z | z3 | A,,/E,/A,/ z/ z | %18
 E,,/E,/^G,/ z/ z | A,,/E,/A,/ z/ z | z3 | A,,/E,/A,/ z/ z | E,,/E,/^G,/ z/ z |1 %23
 A,,/E,/A,/ z/ z :|2 A,,/E,/A,/ [_B,C]/[A,C]/[G,B,C]/ | F,/A,/C/A,/C/A,/ | F,/_B,/D/B,/D/B,/ | %27
 F,/E/[F,G,_B,]/E/[F,G,B,]/E/ | F,/A,/C/A,/C/A,/ | F,/A,/C/A,/C/A,/ | E,/A,/C/A,/[D,D]/F,/ | %31
 G,/E/G,/E/G,/F/ | [CE] z/ [FG]/[EG]/[DFG]/ | [CEG] [F,A,][F,A,] | C z/ [FG]/[EG]/[DFG]/ | %35
 [CEG] [F,A,][G,B,] | [^G,B,] z z | z3 | z2 z/ ^d/ | e/ z/ z/ ^d/e/ z/ | z3 | A,,/E,/A,/ z/ z | %42
 E,,/E,/^G,/ z/ z | A,,/E,/A,/ z/ z | z3 | A,,/E,/A,/ z/ z | E,,/E,/^G,/ z/ z | A,,/E,/A,/ z/ z | %48
 C,/E,/C/ z/ z | G,,/G,/B,/ z/ z | A,,/E,/A,/ z/ z | E,,/E,/E/ z/ z/ E/ | e/ z/ z/ ^d/e/ z/ | %53
 z/ ^d/e/ z/ z | z3 | A,,/E,/A,/ z/ z | E,,/E,/^G,/ z/ z | A,,/E,/A,/ z/ z | z3 | A,,/E,/A,/ z/ z | %60
 E,,/E,/^G,/ z/ z | A,,/A,,/A,,/A,,/A,,/A,,/ | A,,/A,,/A,,/A,,/A,,/A,,/ | %63
 A,,/A,,/A,,/A,,/A,,/A,,/ | A,,/A,,/A,,/A,,/A,,/A,,/ | A,,/A,,/A,,/A,,/A,,/A,,/ | %66
 [D,,A,,]/[D,,A,,]/[D,,A,,]/[D,,A,,]/[D,,A,,]/[D,,A,,]/ | %67
 [^D,,A,,]/[D,,A,,]/[D,,A,,]/[D,,A,,]/[D,,A,,]/[D,,A,,]/ x3 | %68
 [E,,A,,]/[E,,A,,]/[E,,A,,]/[E,,A,,]/[E,,^G,,]/[E,,G,,]/ | [A,,,A,,]/A,,/A,,/A,,/A,,/A,,/ | %70
 A,,/A,,/A,,/A,,/A,,/A,,/ | A,,/A,,/A,,/A,,/A,,/A,,/ | A,,/A,,/A,,/A,,/A,,/A,,/ | %73
 _B,,/B,,/B,,/B,,/B,,/B,,/ | _B,,/B,,/B,,/B,,/B,,/B,,/ | _B,,/B,,/B,,/B,,/B,,/B,,/ | %76
 =B,,/B,,/B,,/B,,/B,,/B,,/ | C, z z | [E,^G,] z z | A,,, z [A,CE] | [A,CE] z [A,CE] | %81
 [A,CE] z [A,CE] | [A,CE] z z | z3 | z3 | A,,/E,/A,/ z/ z | E,,/E,/^G,/ z/ z | A,,/E,/A,/ z/ z | %88
 z3 | A,,/E,/A,/ z/ z | E,,/E,/^G,/ z/ z | A,,/E,/A,/ z/ z | C,/E,/C/ z/ z | G,,/G,/B,/ z/ z | %94
 A,,/E,/A,/ z/ z | E,,/E,/E/ z/ z/ E/ | e/ z/ z/ ^d/e/ z/ | z/ ^d/e/ z/ z | z3 | A,,/E,/A,/ z/ z | %100
 E,,/E,/^G,/ z/ z | A,,/E,/A,/ z/ z | z3 | A,,/E,/A,/ z/ z | E,,/E,/^G,/ z/ z |] [A,,,A,,]2 |] %106

